svg/fluentui-system-icons/ic_fluent_tab_desktop_copy_20_filled.svg

<svg width="20" height="20" viewBox="0 0 20 20" fill="none" xmlns="http://www.w3.org/2000/svg">
<path d="M5.00004 4.5C5.00004 3.11929 6.11933 2 7.50004 2H9.00004V4.5C9.00004 5.32843 9.67161 6 10.5 6H18V12.5C18 13.8807 16.8807 15 15.5 15H7.50004C6.11933 15 5.00004 13.8807 5.00004 12.5V4.5ZM10 4.5V2H15.5C16.8807 2 18 3.11929 18 4.5V5H10.5C10.2239 5 10 4.77614 10 4.5ZM12.5002 18C13.7097 18 14.7186 17.1411 14.9502 16H7.50025C5.56725 16 4.00025 14.433 4.00025 12.5V5.04999C2.85913 5.28162 2.00024 6.2905 2.00024 7.49998V14C2.00024 16.2091 3.79111 18 6.00024 18H12.5002Z" fill="#212121"/>
</svg>

<svg xmlns="http://www.w3.org/2000/svg" width="20" height="20"><path d="M5 4.5A2.5 2.5 0 0 1 7.5 2H9v2.5A1.5 1.5 0 0 0 10.5 6H18v6.5a2.5 2.5 0 0 1-2.5 2.5h-8A2.5 2.5 0 0 1 5 12.5v-8Zm5 0V2h5.5A2.5 2.5 0 0 1 18 4.5V5h-7.5a.5.5 0 0 1-.5-.5ZM12.5 18a2.5 2.5 0 0 0 2.45-2H7.5A3.5 3.5 0 0 1 4 12.5V5.05A2.5 2.5 0 0 0 2 7.5V14a4 4 0 0 0 4 4h6.5Z"/></svg>
